X: 09272
M: 6/8
L: 1/8
K: G
V: 1 clef=treble middle=B
|:\
{AB}c2A B2G | FEF GAB | dcA cBG | FAA AGF |\
V: 2 clef=bass middle=d
|:\
[b3g6] c'3 | [b2g6]c' b3 | [e'2g3]c' [b2g2][^c'e] | [d'3d3] [=c'3d3] | [b3g3] [c'3g3] |
[b2g6]c' b3 | [e'2g6]c' b3 | dac' [b2g2]"Fine"z H:|\
fad' abd' | gc'd' gbd' | fad' gbd' |
dfa d2z | [G3G,3] [^G3^G,3] | [A3A,3] [^c3^C3] | d2f a2A | d3- d2"D.C."z |]

